icons/desktop/16/svg/autoplay-16.svg

<svg width="16" height="16" viewBox="0 0 16 16" fill="none" xmlns="http://www.w3.org/2000/svg">
<path d="M5.49978 0C5.77578 0 5.99978 0.224 5.99978 0.5V3.99902C5.99976 4.445 5.46126 4.66752 5.14626 4.35254L3.81814 3.02441C2.06111 4.50506 1.14905 6.86714 1.62478 9.27441C2.22993 12.3362 5.07912 14.5921 8.199 14.4971C11.6909 14.392 14.4998 11.5169 14.4998 8C14.4998 4.63516 11.93 1.85942 8.64919 1.53223C8.27619 1.49523 7.99978 1.16699 7.99978 0.791992C7.99981 0.338163 8.39954 -0.00280568 8.85134 0.0449219C12.8633 0.470921 15.9998 3.87602 15.9998 8C15.9998 13.019 11.3525 16.9741 6.13552 15.7881C3.63866 15.22 1.52868 13.4151 0.586694 11.0342C-0.755602 7.64044 0.304932 4.09411 2.75466 1.96094L1.64724 0.853516C1.33227 0.538521 1.55578 2.44972e-05 2.00076 0H5.49978Z" fill="black"/>
<path d="M5.99978 5.64355C6.00011 5.14986 6.53284 4.84112 6.96169 5.08594L11.0847 7.44238C11.5166 7.68941 11.5166 8.31159 11.0847 8.55762L6.96169 10.9141C6.53283 11.1589 6.00009 10.8492 5.99978 10.3564V5.64355Z" fill="black"/>
</svg>

<!-- This Source Code Form is subject to the terms of the Mozilla Public
   - License, v. 2.0. If a copy of the MPL was not distributed with this
   - file, You can obtain one at http://mozilla.org/MPL/2.0/. -->
<svg xmlns="http://www.w3.org/2000/svg" width="16" height="16" fill="context-fill" fill-opacity="context-fill-opacity" viewBox="0 0 16 16">
    <path d="M5.5 0a.5.5 0 0 1 .5.5v3.499a.5.5 0 0 1-.854.354L3.818 3.024a6.51 6.51 0 0 0-2.193 6.25c.605 3.062 3.454 5.318 6.574 5.223A6.51 6.51 0 0 0 14.499 8a6.51 6.51 0 0 0-5.85-6.468.737.737 0 0 1-.65-.74c0-.454.4-.795.852-.747C12.863.47 16 3.876 16 8c0 5.019-4.648 8.974-9.864 7.788a7.9 7.9 0 0 1-5.55-4.754C-.755 7.64.306 4.094 2.756 1.961L1.647.854A.5.5 0 0 1 2.001 0z" />
    <path d="M6 5.644c0-.494.533-.803.962-.558l4.123 2.356a.642.642 0 0 1 0 1.116l-4.123 2.356A.643.643 0 0 1 6 10.356z" />
</svg>
